symbolic/48x48/apps/org.freedesktop.Bustle.svg

<svg xmlns="http://www.w3.org/2000/svg" width="48" height="48" version="1.1">
 <path style="opacity:.2" d="m 24,27 a 6,6 0 0 0 -5.708984,4.164062 H 10 V 29.992188 A 0.96558431,0.99240118 0 0 0 9.0058594,29 0.96558431,0.99240118 0 0 0 8.5527344,29.130859 l -2.5351563,1.50586 -2.5351562,1.503906 a 0.96558431,0.99240118 0 0 0 0,1.71875 l 2.5351562,1.503906 2.5351563,1.503907 A 0.96558431,0.99240118 0 0 0 10,36.007812 v -1.171874 h 8.294922 A 6,6 0 0 0 24,39 6,6 0 0 0 29.708984,34.835938 H 38 v 1.171874 a 0.96558431,0.99240118 0 0 0 1.447266,0.859376 l 2.535156,-1.503907 2.535156,-1.503906 a 0.96558431,0.99240118 0 0 0 0,-1.71875 l -2.535156,-1.503906 -2.535156,-1.50586 A 0.96558431,0.99240118 0 0 0 38.994141,29 0.96558431,0.99240118 0 0 0 38,29.992188 v 1.171874 H 29.705078 A 6,6 0 0 0 24,27 Z"/>
 <path style="fill:#65b457" d="m45 32h-42c0-11.59798 9.4020199-21 21-21s21 9.40202 21 21z"/>
 <path style="fill:#f4f4f7;opacity:.2" d="m24 11c-11.59798 0-21 9.40202-21 21h0.0253906c0.5224608-11.133161 9.7121954-20 20.974609-20s20.452149 8.866839 20.974609 20h0.025391c0-11.59798-9.40202-21-21-21z"/>
 <path style="opacity:.2" d="m25 14.035156v2.015625a16 16 0 0 1 6.488281 1.820313l1.697266-1.326172a18 18 0 0 0-8.185547-2.509766zm-2 0.01563a18 18 0 0 0-8.185547 2.494141l1.697266 1.328125a16 16 0 0 1 6.488281-1.835943zm11.933594 3.666016-1.634766 1.279297a16 16 0 0 1 4.535156 5.003901h2.265625a18 18 0 0 0-5.166015-6.283203zm-21.859375 0.0059a18 18 0 0 0-5.1894534 6.277298h2.2753904a16 16 0 0 1 4.546875-5zm-6.0253909 8.277298a18 18 0 0 0-1.0488281 6 18 18 0 0 0 0.0507812 1h1.9863282a16 16 0 0 1-0.0371094-1 16 16 0 0 1 1.1796875-6zm31.773438 0a16 16 0 0 1 1.177734 6 16 16 0 0 1-0.05078 1h2.015625a18 18 0 0 0 0.035155-1 18 18 0 0 0-1.052734-6z"/>
 <path style="fill:#f4f4f7" d="m25 13.035156v2.015625a16 16 0 0 1 6.488281 1.820313l1.697266-1.326172a18 18 0 0 0-8.185547-2.509766zm-2 0.015625a18 18 0 0 0-8.185547 2.494141l1.697266 1.328125a16 16 0 0 1 6.488281-1.835938v-1.986328zm11.933594 3.666016-1.634766 1.279297a16 16 0 0 1 4.535156 5.003906h2.265625a18 18 0 0 0-5.166015-6.283203zm-21.859375 0.005859a18 18 0 0 0-5.1894534 6.277344h2.2753904a16 16 0 0 1 4.546875-5l-1.632812-1.277344zm-6.0253909 8.277344a18 18 0 0 0-1.0488281 6 18 18 0 0 0 0.0507812 1h1.9863282a16 16 0 0 1-0.0371094-1 16 16 0 0 1 1.1796875-6h-2.1308594zm31.773438 0a16 16 0 0 1 1.177734 6 16 16 0 0 1-0.050781 1h2.015625a18 18 0 0 0 0.035156-1 18 18 0 0 0-1.052734-6h-2.125z"/>
 <path style="fill:#3f3f3f" d="m8 30.164062v3.671876h16v-3.671876z"/>
 <path style="fill:#3f3f3f" d="m24 30.164062v3.671876h16v-3.671876z"/>
 <circle style="fill:#4f4f4f" cx="24" cy="32" r="6"/>
 <path style="fill:#3f3f3f" d="m9.0062267 28a0.96558431 0.99240118 0 0 0-0.454458 0.13179l-2.5344054 1.503958-2.5344053 1.503957a0.96558431 0.99240118 0 0 0 0 1.719086l2.5344053 1.503958 2.5344054 1.503957a0.96558431 0.99240118 0 0 0 1.4482313-0.859543v-6.01583a0.96558431 0.99240118 0 0 0-0.9937733-0.991333z"/>
 <path style="fill:#3f3f3f" d="m38.993773 28a0.96558431 0.99240118 0 0 1 0.454458 0.13179l2.534406 1.503958 2.534405 1.503957a0.96558431 0.99240118 0 0 1 0 1.719086l-2.534405 1.503958-2.534406 1.503957a0.96558431 0.99240118 0 0 1-1.448231-0.859543v-6.01583a0.96558431 0.99240118 0 0 1 0.993773-0.991333z"/>
 <circle style="opacity:.2" cx="24" cy="33" r="4"/>
 <circle style="fill:#f4f4f7" cx="24" cy="32" r="4"/>
</svg>

<svg xmlns="http://www.w3.org/2000/svg" width="48" height="48"><path style="opacity:.2" d="M24 27a6 6 0 0 0-5.709 4.164H10v-1.172A.966.992 0 0 0 9.006 29a.966.992 0 0 0-.453.13l-2.535 1.507-2.536 1.504a.966.992 0 0 0 0 1.718l2.536 1.504 2.535 1.504a.966.992 0 0 0 1.447-.86v-1.171h8.295A6 6 0 0 0 24 39a6 6 0 0 0 5.709-4.164H38v1.172a.966.992 0 0 0 1.447.86l2.535-1.505 2.536-1.504a.966.992 0 0 0 0-1.718l-2.536-1.504-2.535-1.506a.966.992 0 0 0-.453-.131.966.992 0 0 0-.994.992v1.172h-8.295A6 6 0 0 0 24 27z"/><path style="fill:#65b457" d="M45 32H3c0-11.598 9.402-21 21-21s21 9.402 21 21z"/><path style="fill:#f4f4f7;opacity:.2" d="M24 11C12.402 11 3 20.402 3 32h.025C3.548 20.867 12.738 12 24 12s20.452 8.867 20.975 20H45c0-11.598-9.402-21-21-21z"/><path style="opacity:.2" d="M25 14.035v2.016a16 16 0 0 1 6.488 1.82l1.698-1.326A18 18 0 0 0 25 14.035zm-2 .016a18 18 0 0 0-8.186 2.494l1.698 1.328A16 16 0 0 1 23 16.037zm11.934 3.666-1.635 1.28A16 16 0 0 1 37.834 24H40.1a18 18 0 0 0-5.166-6.283zm-21.86.006A18 18 0 0 0 7.884 24h2.276a16 16 0 0 1 4.547-5zM7.05 26A18 18 0 0 0 6 32a18 18 0 0 0 .05 1h1.987A16 16 0 0 1 8 32a16 16 0 0 1 1.18-6zm31.773 0A16 16 0 0 1 40 32a16 16 0 0 1-.05 1h2.015A18 18 0 0 0 42 32a18 18 0 0 0-1.053-6z"/><path style="fill:#f4f4f7" d="M25 13.035v2.016a16 16 0 0 1 6.488 1.82l1.698-1.326A18 18 0 0 0 25 13.035zm-2 .016a18 18 0 0 0-8.186 2.494l1.698 1.328A16 16 0 0 1 23 15.037v-1.986zm11.934 3.666-1.635 1.28A16 16 0 0 1 37.834 23H40.1a18 18 0 0 0-5.166-6.283zm-21.86.006A18 18 0 0 0 7.884 23h2.276a16 16 0 0 1 4.547-5l-1.633-1.277zM7.05 25A18 18 0 0 0 6 31a18 18 0 0 0 .05 1h1.987A16 16 0 0 1 8 31a16 16 0 0 1 1.18-6H7.049zm31.773 0A16 16 0 0 1 40 31a16 16 0 0 1-.05 1h2.015A18 18 0 0 0 42 31a18 18 0 0 0-1.053-6h-2.125z"/><path style="fill:#3f3f3f" d="M8 30.164v3.672h16v-3.672zM24 30.164v3.672h16v-3.672z"/><circle style="fill:#4f4f4f" cx="24" cy="32" r="6"/><path style="fill:#3f3f3f" d="M9.006 28a.966.992 0 0 0-.454.132l-2.535 1.504-2.534 1.504a.966.992 0 0 0 0 1.719l2.534 1.504 2.535 1.504a.966.992 0 0 0 1.448-.86v-6.016A.966.992 0 0 0 9.006 28zM38.994 28a.966.992 0 0 1 .454.132l2.535 1.504 2.534 1.504a.966.992 0 0 1 0 1.719l-2.534 1.504-2.535 1.504a.966.992 0 0 1-1.448-.86v-6.016a.966.992 0 0 1 .994-.991z"/><circle style="opacity:.2" cx="24" cy="33" r="4"/><circle style="fill:#f4f4f7" cx="24" cy="32" r="4"/></svg>
